X:002
T:Antrim Rose (reel) 
B:CRE3.147
F:file ID: cre.3/002ant_rose
C:Paddy O'Brien (Offaly)
R:reel
L:1/8
Q:180
M:C
K:D
de|fdd2 edBd|Add2 Adde|fdd2 edBd|Adgf efde|
fdd2 edBd|Add2 Adde|faag afeg|fedB A2:|
(3ABc|e3f edBd|(3efe df efgf|edef edBd|Addc d2gf|
e3f edBd|(3efe df efge|faag afeg|fedB A2:|

%%%

